assets/logout.svg

<svg width="16" height="22" viewBox="0 0 16 22" fill="none" xmlns="http://www.w3.org/2000/svg">
<path opacity="0.46" d="M3 21C3 21.5523 3.44772 22 4 22C4.55228 22 5 21.5523 5 21C5 20.4477 4.55228 20 4 20C3.44772 20 3 20.4477 3 21ZM7 21C7 21.5523 7.44772 22 8 22C8.55229 22 9 21.5523 9 21C9 20.4477 8.55229 20 8 20C7.44772 20 7 20.4477 7 21ZM9 1C9 0.447715 8.55229 0 8 0C7.44772 0 7 0.447715 7 1V9C7 9.55228 7.44772 10 8 10C8.55229 10 9 9.55229 9 9V1ZM13.2028 2.93498C12.8454 2.62977 12.3184 2.68156 11.9861 3.01389C11.5402 3.4598 11.6349 4.20648 12.0964 4.63628C13.2666 5.72615 14 7.27456 14 9C14 12.31 11.31 15 8 15C4.69 15 2 12.31 2 9C2 7.27062 2.73675 5.71907 3.90655 4.62376C4.36366 4.19575 4.45513 3.45513 4.01234 3.01234C3.68091 2.68091 3.15537 2.62927 2.79886 2.93356C1.08496 4.3964 0 6.57056 0 9C0 13.42 3.58 17 8 17C12.42 17 16 13.42 16 9C16 6.57134 14.9157 4.39781 13.2028 2.93498ZM11 21C11 21.5523 11.4477 22 12 22C12.5523 22 13 21.5523 13 21C13 20.4477 12.5523 20 12 20C11.4477 20 11 20.4477 11 21Z" fill="#2570C6"/>
</svg>

<?xml version="1.0" encoding="utf-8"?>
<!-- Generator: Adobe Illustrator 25.2.1, SVG Export Plug-In . SVG Version: 6.00 Build 0)  -->
<svg version="1.1" id="Layer_1" xmlns="http://www.w3.org/2000/svg" xmlns:xlink="http://www.w3.org/1999/xlink" x="0px" y="0px"
	 viewBox="0 0 16 22" style="enable-background:new 0 0 16 22;" xml:space="preserve">
<style type="text/css">
	.st0{fill:#2570C6;enable-background:new    ;}
</style>
<path class="st0" d="M3,21c0,0.6,0.4,1,1,1s1-0.4,1-1s-0.4-1-1-1S3,20.4,3,21z M7,21c0,0.6,0.4,1,1,1c0.6,0,1-0.4,1-1s-0.4-1-1-1
	C7.4,20,7,20.4,7,21z M9,1c0-0.6-0.4-1-1-1C7.4,0,7,0.4,7,1v8c0,0.6,0.4,1,1,1c0.6,0,1-0.4,1-1V1z M13.2,2.9C12.8,2.6,12.3,2.7,12,3
	c-0.4,0.4-0.4,1.2,0.1,1.6C13.3,5.7,14,7.3,14,9c0,3.3-2.7,6-6,6s-6-2.7-6-6c0-1.7,0.7-3.3,1.9-4.4C4.4,4.2,4.5,3.5,4,3
	C3.7,2.7,3.2,2.6,2.8,2.9C1.1,4.4,0,6.6,0,9c0,4.4,3.6,8,8,8s8-3.6,8-8C16,6.6,14.9,4.4,13.2,2.9z M11,21c0,0.6,0.4,1,1,1s1-0.4,1-1
	s-0.4-1-1-1S11,20.4,11,21z"/>
</svg>
